flaticon/productivity/browsers.svg

<svg xmlns="http://www.w3.org/2000/svg" width="32" height="32" viewBox="0 0 24 24">
    <path d="M9.226562 2.132812L10.25 2.132812 10.25 3.636719 9.226562 3.636719zM11.066406 2.132812L12.085938 2.132812 12.085938 3.636719 11.066406 3.636719zM12.902344 2.132812L13.925781 2.132812 13.925781 3.636719 12.902344 3.636719zM12.902344 2.132812"/>
    <path d="M 15.664062 7.453125 L 15.664062 0 L 0 0 L 0 16.546875 L 8.335938 16.546875 L 8.335938 24 L 24 24 L 24 7.453125 Z M 1.019531 1.019531 L 14.644531 1.019531 L 14.644531 4.75 L 1.019531 4.75 Z M 1.019531 15.527344 L 1.019531 5.769531 L 14.644531 5.769531 L 14.644531 7.453125 L 8.335938 7.453125 L 8.335938 15.527344 Z M 22.980469 22.980469 L 9.355469 22.980469 L 9.355469 13.222656 L 22.980469 13.222656 Z M 9.355469 12.199219 L 9.355469 8.472656 L 22.980469 8.472656 L 22.980469 12.199219 Z M 9.355469 12.199219"/>
    <path d="M17.5625 9.582031L18.582031 9.582031 18.582031 11.089844 17.5625 11.089844zM19.398438 9.582031L20.421875 9.582031 20.421875 11.089844 19.398438 11.089844zM21.238281 9.582031L22.257812 9.582031 22.257812 11.089844 21.238281 11.089844zM5.699219 7.929688L2.773438 10.855469 5.699219 13.78125 6.421875 13.058594 4.21875 10.855469 6.421875 8.652344zM15.871094 20.753906L18.792969 17.828125 15.871094 14.90625 15.148438 15.625 17.351562 17.828125 15.148438 20.03125zM15.871094 20.753906"/>
</svg>

<svg xmlns="http://www.w3.org/2000/svg" width="32" height="32" viewBox="0 0 24 24">
    <path d="M9.227 2.133h1.023v1.504H9.227zm0 0M11.066 2.133h1.02v1.504h-1.02zm0 0M12.902 2.133h1.024v1.504h-1.024zm0 0"/>
    <path d="M15.664 7.453V0H0v16.547h8.336V24H24V7.453zM1.02 1.02h13.625v3.73H1.02zm0 14.507V5.77h13.625v1.683h-6.31v8.074zm21.96 7.453H9.355v-9.757H22.98zM9.355 12.2V8.472H22.98v3.726zm0 0"/>
    <path d="M17.563 9.582h1.019v1.508h-1.02zm0 0M19.398 9.582h1.024v1.508h-1.024zm0 0M21.238 9.582h1.02v1.508h-1.02zm0 0M5.7 7.93l-2.927 2.925L5.7 13.781l.723-.722-2.203-2.204 2.203-2.203zm0 0M15.871 20.754l2.922-2.926-2.922-2.922-.723.719 2.204 2.203-2.204 2.203zm0 0"/>
</svg>
